icon-themes/sifr_svg/cmd/sc_beziereliminatepoints.svg

<svg viewBox="0 0 16 16" xmlns="http://www.w3.org/2000/svg"><g fill="#555753"><path d="m3 7v-1h-2v-2h2v-1h4v4zm6 0v-4h4v1h2v2h-2v1zm-5-1h2v-2h-2zm6 0h2v-2h-2z" opacity=".35"/><path d="m6 13v-1h-5v-2h5v-1h4v1h5v2h-5v1zm1-1h2v-2h-2z"/></g></svg>

<svg xmlns="http://www.w3.org/2000/svg" viewBox="0 0 16 16">
  <path
     style="opacity:0.35;fill:#555753"
     d="M 3,7 V 6 H 1 V 4 H 3 V 3 H 7 V 7 Z M 9,7 V 3 h 4 v 1 h 2 V 6 H 13 V 7 Z M 4,6 H 6 V 4 H 4 Z m 6,0 h 2 V 4 h -2 z"
     />
  <path
     style="fill:#555753"
     d="M 6,13 V 12 H 1 V 10 H 6 V 9 h 4 v 1 h 5 v 2 h -5 v 1 z M 7,12 H 9 V 10 H 7 Z"
     />
</svg>
